findly-builder/apps/searchassist/src/assets/icons/sidemenu/table-refresh-2.svg

<svg width="14" height="14" viewBox="0 0 14 14" fill="none" xmlns="http://www.w3.org/2000/svg">
<path fill-rule="evenodd" clip-rule="evenodd" d="M6.06667 0C8.05477 0 9.87529 0.964893 10.9997 2.53469L12.1333 1.4V4.66667H8.86667L10.3294 3.20571C9.38642 1.80188 7.80235 0.933333 6.06667 0.933333C3.23133 0.933333 0.933333 3.23133 0.933333 6.06667C0.933333 8.83285 3.1206 11.0876 5.86019 11.1959L6.06667 11.2H6.53333V7.93333C6.53333 7.20587 7.0888 6.60761 7.79855 6.53974L7.93333 6.53333H12.6C13.3275 6.53333 13.9257 7.0888 13.9936 7.79855L14 7.93333V12.6C14 13.3275 13.4445 13.9257 12.7348 13.9936L12.6 14H7.93333C7.20587 14 6.60761 13.4445 6.53974 12.7348L6.53333 12.6V12.1333H6.06667C2.71587 12.1333 0 9.41747 0 6.06667C0 2.71587 2.71587 0 6.06667 0ZM12.6001 7.46674H7.93341C7.70455 7.46674 7.51383 7.63204 7.47427 7.8496L7.46674 7.93341V12.6001C7.46674 12.8289 7.63204 13.0197 7.8496 13.0592L7.93341 13.0667H12.6001C12.8289 13.0667 13.0197 12.9014 13.0592 12.6839L13.0667 12.6001V7.93341C13.0667 7.70455 12.9014 7.51383 12.6839 7.47427L12.6001 7.46674ZM12.2964 9.48041L11.6364 8.82045L9.91678 10.5402L8.84676 9.47005L8.18679 10.13L9.91678 11.86L12.2964 9.48041Z" fill="#202124"/>
</svg>

<svg width="14" height="14" fill="none" xmlns="http://www.w3.org/2000/svg"><path fill-rule="evenodd" clip-rule="evenodd" d="M6.067 0A6.06 6.06 0 0 1 11 2.535L12.133 1.4v3.267H8.867l1.462-1.461a5.133 5.133 0 1 0-4.47 7.99l.208.004h.466V7.933A1.4 1.4 0 0 1 7.8 6.54l.134-.007H12.6A1.4 1.4 0 0 1 13.994 7.8l.006.134V12.6a1.4 1.4 0 0 1-1.265 1.394L12.6 14H7.933a1.4 1.4 0 0 1-1.393-1.265l-.007-.135v-.467h-.466A6.066 6.066 0 1 1 6.067 0ZM12.6 7.467H7.933a.467.467 0 0 0-.459.383l-.007.083V12.6c0 .229.165.42.383.46l.083.007H12.6c.229 0 .42-.166.46-.383l.007-.084V7.933a.467.467 0 0 0-.383-.459l-.084-.007Zm-.304 2.013-.66-.66-1.72 1.72-1.07-1.07-.66.66 1.73 1.73 2.38-2.38Z" fill="#202124"/></svg>
